!!!SOCIAL_FUNCTION:	rain dance song
!!!PDT:	1957
!!!OTL: No_68_The_Rain_Is_Coming.krn
!!!LING_GROUP: Keresan
!!!LANG: Tone
!!!REG: Southwest
**kern
*staff1
=1-
*clefF4
*k[f#]
*M3/4
2r
8r
16E\LL
16E\JJ
=2
8G\L
16G\L
16G\JJ
12G\L
12D\
12D\J
4D\
=3
*M2/4
4C/
8GG/L
8C/J
=4
12C/L
12GG/
12GG/J
8GG/
16r
16G\
=5
8.G\L
16G\Jk
4G\
=6
4D\
8C/L
8D/J
=7
16D/LK
(8C/
16AA/Jk)
8AA/L
8C/J
=8
16C/LK
8AA/
16GG/Jk
8GG/L
8AA/J
=9
*M3/4
8AA/L
16GG/L
16GG/JJ
8GG/L
16AA/L
16AA/JJ
8GG/
8r
=10
*M5/8
16D/LL
16D/
16C/
16AA/
16AA/JJ
16r
16D\LL
16D\J
8D\J
=11
*M3/8
16D/LL
16C/
16C/
16AA/J
8GG/J
=12
*M2/4
8AA/L
16GG/L
16GG/JJ
8GG/
8r
=13
*M3/4
16AA/LK
8GG/
16GG/Jk
8GG/L
8GG/J
16AA/LL
16GG/J
8GG/J
=14
*M2/4
8.AA/L
16GG/Jk
8GG/
8r
=15
*M3/4
16GG/LK
8GG/
16GG/Jk
8GG/L
8GG/J
4r
=16
*k[b-e-]
*M2/4
8B-\L
16B-\L
16B-\JJ
4B-\
=17
16c\LK
8.B-\J
16G\LK
8.F\J
=18
*M5/8
8G\L
8G\
8G\
16G\L
16B-\
(16B-\
16G\JJ)
=19
*M3/8
8F\
4F\
=20
*M2/4
8.G\L
16G\Jk
16B-\LK
8.F\J
=21
8G\L
8G\J
8G\L
16B-\L
16G\JJ
=22
4B-\
8F\L
8F\J
=23
4F\
4r
=24
8B-\L
8c\J
4B-\
=25
4B-\
12c\L
12B-\
12G\J
=26
*M5/8
8G\L
16B-\L
16G\J
8F\
8G\
16B-\L
16G\JJ
=27
*M2/4
4F\
4r
=28
*M3/4
8.G\L
16B-\Jk
8F\L
16F\L
16F\JJ
4F\
=29
2G\
4r
=30
*M3/8
8G\L
8B-\
8G\J
=31
*M2/4
8G\L
16F\L
16E-\JJ
8D\L
8F\J
=32
*M3/4
4D\
8D\L
16D\L
16C\JJ
8BB-/
24D/LL
24C/
24BB-/JJ
=33
*M2/4
8BB-/L
8BB-/J
8BB-/
8r
=34
*M3/4
(16BB-/LL
16GG/J)
8GG/J
(16BB-/LL
16GG/J)
8GG/J
(16BB-/LL
16GG/J)
8GG/J
=35
*M2/4
8D\L
8D\J
(4BB-/
=36
8GG/L)
8GG/J
4r
=37
8GG/L
8GG/J
4r
==
*-
